svg/uf00ad-fallen_kings.svg

<svg height="960" style="" width="1080" xmlns="http://www.w3.org/2000/svg"><path d="m924.71309.00021h-769.42619l-35.2869 167.63965 81.17046-109.428841h113.68204v742.944031c0 103.22924 153.54644 158.84474 153.54644 158.84474-90.00114-89.99954-90.00114-145.58087-90.00114-145.58087v-561.64389c17.33241 75.05125 84.04321 128.30027 161.06937 128.56673 77.02616.26645 144.10377-52.51975 161.95501-127.44929l.21618-1.11744v561.64388s0 55.57934-90.00154 145.58087c0 0 153.54683-55.57975 153.54683-158.84515v-742.944023h113.64588l81.17047 109.429253zm-546.35146 177.80274v-119.591931h108.133c-53.79673 18.522491-94.46437 63.156201-107.91521 118.439531l-.21617 1.11744zm161.62048 143.38335c-42.83132.00016-81.44558-25.80088-97.83557-65.37112-16.38995-39.57017-7.32763-85.11621 22.95855-115.4024 30.2862-30.2862 75.83224-39.34851 115.40241-22.95855 39.57024 16.38998 65.37128 55.00424 65.37111 97.83556-.003 58.48383-47.41267 105.89362-105.8965 105.89651zm53.52486-262.939528h108.09522v119.556178c-13.0174-55.35405-53.31855-100.27363-106.94162-119.196955z" style="stroke-width:40.1813"/></svg>

<svg xmlns="http://www.w3.org/2000/svg" width="1080" height="960">
    <path d="M924.713 0H155.287L120 167.64 201.17 58.21h113.682v742.944C314.852 904.385 468.4 960 468.4 960c-90.001-90-90.001-145.581-90.001-145.581V252.775c17.332 75.051 84.043 128.3 161.07 128.567 77.025.266 144.103-52.52 161.954-127.45l.216-1.117v561.644s0 55.58-90.001 145.58c0 0 153.547-55.579 153.547-158.844V58.21H878.83L960 167.64zM378.362 177.803V58.211h108.133c-53.797 18.523-94.465 63.156-107.916 118.44l-.216 1.117zm161.62 143.383c-42.831 0-81.445-25.8-97.835-65.37s-7.328-85.117 22.958-115.403 75.832-39.349 115.402-22.959 65.372 55.004 65.372 97.836c-.003 58.484-47.413 105.893-105.897 105.896m53.525-262.94h108.095v119.557c-13.017-55.354-53.318-100.274-106.941-119.197z" style="stroke-width:40.1813"/>
</svg>
